!!!SOCIAL_FUNCTION:	songs of the lame dance
!!!PDT:	1922
!!!OTL: No_40_Lame_Dance_Song_(b).krn
!!!REG: Southwest
!!!LANG: Non-Tone
!!!LING_GROUP: Uto-Aztecan
**kern	**kern
*staff2	*staff1
=1-	=1-
=	=
*clefF4	*clefF4
*k[f#c#g#d#]	*k[f#c#g#d#]
*M2/4	*M2/4
4GG#/	4e\
4GG#/	4B\
=2	=2
4GG#/	4e\
4GG#/	16B\LL
.	16G#\
.	16G#\
.	16G#\JJ
=3	=3
2r	16F#\LL
.	16E\J
.	8E\J
.	16F#\LL
.	16E\J
.	8E\J
=4||	=4||
*M3/4	*M3/4
2.r	8E\L
.	8E\J
.	4E\
.	4r
=5||	=5||
*M2/4	*M2/4
2r	4e\
.	4B\
=6	=6
2r	4e\
.	16B\LL
.	16G#\
.	16G#\
.	16G#\JJ
=7	=7
2r	16F#\LL
.	16E\J
.	8E\J
.	16F#\LL
.	16E\J
.	8E\J
=8||	=8||
*M3/4	*M3/4
2.r	2.E\
=9||	=9||
*M2/4	*M2/4
2r	16G#\LK
.	8.G#\J
.	4F#\
=10	=10
2r	16A\LK
.	8.G#\J
.	16F#\LL
.	16E\
.	16E\
.	16D#\JJ
=11||	=11||
*M3/4	*M3/4
2.r	4E\
.	2BB/
=12||	=12||
*M2/4	*M2/4
2r	16F#\LK
.	8.E\J
.	4BB/
=13	=13
2r	16F#\LK
.	8.E\J
.	4E\
=14	=14
2r	4BB/
.	8BB/L
.	8BB/J
=15	=15
2r	2BB/
==:|!	==:|!
*-	*-
